X:8698
T:Klanjarka
S:Hamish Small 
R:Other
O:Macedonia
M:2/4
L:1/8
K:CDor
B2cd|ed cB|d2d2|B2cd|ed cB|c2c2::\
fe df|fe dc|c2f2|fe df|fe dc|c2c2:|
